X:1
T:2
T:2
T:Études enfantines op. 37
T:Henry Lemoine
C:Henri Lemoine
%%score { 1 | 2 } { 3 4 }
L:1/8
Q:1/4=180
M:2/2
K:C
V:1 treble nm="Piano" snm="Pno."
V:2 bass 
V:3 treble nm="Klavír" snm="Klv."
V:4 bass nm="Klavír" snm="Klv."
V:1
"^Allegro" !1!!3!!5![gc'e']4 z4 | !1!!2!!5![egc']4 z4 | !1!!2!!4![fgb]8- | [fgb]8 | %4
 !1!!2!!5![egc']4 z4 | !1!!3!!5![gc'e']4 z4 | !2!!4!!1![gbd']8- | [gbd']8 | !1!!3!!5![gc'e']4 z4 | %9
 !1!!2!!5![egc']4 z4 | !1!!3!!5![cfa]8- | [cfa]4 [cfa]4 | !1!!2!!4![ceg]4 z4 | !1!!2!!4![fgb]4 z4 | %14
 [egc']8- | [egc']8 |] %16
V:2
 !5!C,D,E,F, !1!G,!3!A,B,C | !5!C,D,E,F, !1!G,!3!A,B,C | !5!D,E,F,G, !1!A,!3!B,CD | %3
 !5!D,E,F,G, !1!A,!3!B,CD | !5!E,F,G,A, !1!B,!3!CDE | !5!C,D,E,F, !1!G,!3!A,B,C | %6
 z !5!G,,A,,B,, C,!1!D,!3!E,F, | !1!G,!4!A,B,C !1!D!3!EFG | !5!C,D,E,F, !1!G,!3!A,B,C | %9
 !5!E,F,G,A, !1!B,!3!CDE | !5!F,G,A,B, C!3!DEF | !5!F,G,A,B, C!3!DEF | !5!G,A,B,C D!3!EFG | %13
 !5!G,A,B,C D!3!EFG | z (!5!C,D,E, F,G,!3!A,B, | C8) |] %16
V:3
 !1!!3!!5![gc'e']4 z4 | !1!!2!!5![egc']4 z4 | !1!!2!!4![fgb]8- | [fgb]8 | !1!!2!!5![egc']4 z4 | %5
 !1!!3!!5![gc'e']4 z4 | !2!!4!!1![gbd']8- | [gbd']8 | !1!!3!!5![gc'e']4 z4 | !1!!2!!5![egc']4 z4 | %10
 !1!!3!!5![cfa]8- | [cfa]4 [cfa]4 | !1!!2!!4![ceg]4 z4 | !1!!2!!4![fgb]4 z4 | [egc']8- | [egc']8 |] %16
V:4
 !5!C,D,E,F, !1!G,!3!A,B,C | !5!C,D,E,F, !1!G,!3!A,B,C | !5!D,E,F,G, !1!A,!3!B,CD | %3
 !5!D,E,F,G, !1!A,!3!B,CD | !5!E,F,G,A, !1!B,!3!CDE | !5!C,D,E,F, !1!G,!3!A,B,C | %6
 z !5!G,,A,,B,, C,!1!D,!3!E,F, | !1!G,!4!A,B,C !1!D!3!EFG | !5!C,D,E,F, !1!G,!3!A,B,C | %9
 !5!E,F,G,A, !1!B,!3!CDE | !5!F,G,A,B, C!3!DEF | !5!F,G,A,B, C!3!DEF | !5!G,A,B,C D!3!EFG | %13
 !5!G,A,B,C D!3!EFG | z (!5!C,D,E, F,G,!3!A,B, | C8) |] %16

